X:291
T:Man of Constant Sorrow
C:Ralph Stanley - Dan Tyminski solo
N:Transcribed by Mike Stangeland
R:bluegrass
L:1/8
Q:1/4=167
M:4/4
K:F
z8 | z2 [f2F2] [fF][AF] [BF][AF] | "F"[fc][fc] [fc][fc] [fc][fc] [fc][fc] | [fc][_ac] [ac][ac] [ac][ac] [ac][ac] | 
[_ac][fc] [fc][fc] [fc]_e cB | _A[FA,] [FA,][FA,] [FA,][FA,] [FA,][FA,] | "Bb"[BF][BF] [BF][BF] [BF][BF] [BF][BF] | 
[BF][BF] [BF][BF] [BF][AF] [BF][cG] | "C"[cG][cG] [cG][cG] [cG]_e cB | [cG][cG] [cG][cG] cB _A2 | 
"F"[F2A,2] [F2A,2] [FA,][FA,] [FA,][FA,] | [F2A,2] F2 A2 B2 | "C"c2 (3ccc (3ccc (3ccc | 
z2 c2 B2 _A2 | "F"(3FFF (3FFF (3FFF (3FFF | F8 | z8 | "."z8 | 


